svgs/regular/walkie-talkie.svg

<svg xmlns="http://www.w3.org/2000/svg" viewBox="0 0 384 512"><!-- Font Awesome Pro 6.0.0-alpha2 by @fontawesome - https://fontawesome.com License - https://fontawesome.com/license (Commercial License) --><path d="M352 96H320V80C320 71.163 312.837 64 304 64H272C263.163 64 256 71.163 256 80V96H224V80C224 71.163 216.837 64 208 64H176C167.163 64 160 71.163 160 80V96H112V24C112 10.745 101.255 0 88 0H88C74.745 0 64 10.745 64 24V96H32C14.4 96 0 110.4 0 128V306.742C0 315.231 3.372 323.372 9.375 329.375L32 352V464C32 490.51 53.49 512 80 512H304C330.51 512 352 490.51 352 464V352L374.631 329.369C380.63 323.37 384 315.234 384 306.75V128C384 110.4 369.6 96 352 96ZM336 300.125L318 318L304 332.125V464H80V332.125L66 318L48 300.125V144H336V300.125ZM128 240H256C264.875 240 272 232.875 272 224V208C272 199.125 264.875 192 256 192H128C119.125 192 112 199.125 112 208V224C112 232.875 119.125 240 128 240ZM128 320H256C264.875 320 272 312.875 272 304V288C272 279.125 264.875 272 256 272H128C119.125 272 112 279.125 112 288V304C112 312.875 119.125 320 128 320Z"/></svg>

<svg xmlns="http://www.w3.org/2000/svg" viewBox="0 0 384 512"><!-- Font Awesome Pro 5.15.1 by @fontawesome - https://fontawesome.com License - https://fontawesome.com/license (Commercial License) --><path d="M352 96h-32V80a16 16 0 0 0-16-16h-32a16 16 0 0 0-16 16v16h-32V80a16 16 0 0 0-16-16h-32a16 16 0 0 0-16 16v16h-48V16A16 16 0 0 0 96 0H80a16 16 0 0 0-16 16v80H32a32.09 32.09 0 0 0-32 32v178.74a32 32 0 0 0 9.37 22.63L32 352v112a48 48 0 0 0 48 48h224a48 48 0 0 0 48-48V352l22.63-22.63a32 32 0 0 0 9.37-22.63V128a32.09 32.09 0 0 0-32-32zm-16 204.12l-17.94 17.94L304 332.12V464H80V332.12l-14.06-14.06L48 300.12V144h288zM128 240h128a16 16 0 0 0 16-16v-16a16 16 0 0 0-16-16H128a16 16 0 0 0-16 16v16a16 16 0 0 0 16 16zm0 80h128a16 16 0 0 0 16-16v-16a16 16 0 0 0-16-16H128a16 16 0 0 0-16 16v16a16 16 0 0 0 16 16z"/></svg>
